dist/svg/desktop-group-cloud.svg

<!-- Generated by Trend Micro Style Portal -->
<svg version="1.1" xmlns="http://www.w3.org/2000/svg" width="16" height="16" viewBox="0 0 16 16">
  <title>desktop-group-cloud</title>
  <path fill="rgb(34,34,34)" d="M5 2h-1v-1c0-0.552 0.448-1 1-1v0h9c0.552 0 1 0.448 1 1v0 5c0 0.552-0.448 1-1 1v0h-1v-5h-8zM2 10h0.55c0.702-1.2 1.983-1.995 3.449-2h-2.999v-3h7v3h-4c1.007 0.007 1.925 0.385 2.624 1.004l-0.004-0.004 0.11 0.090c0.231-0.057 0.497-0.090 0.77-0.090v0c0.816 0.003 1.565 0.285 2.157 0.755l-0.007-0.005c0.212-0.182 0.347-0.45 0.35-0.749v-5.001c0-0.552-0.448-1-1-1v0h-9c-0.552 0-1 0.448-1 1v0 5c0 0.552 0.448 1 1 1v0zM16 14c0 1.105-0.895 2-2 2v0h-11.5c-1.381 0-2.5-1.119-2.5-2.5s1.119-2.5 2.5-2.5v0c0.233 0.005 0.456 0.041 0.668 0.105l-0.018-0.005c0.141-0.427 0.36-0.794 0.642-1.102l-0.002 0.002c0.54-0.615 1.327-1.001 2.205-1.001s1.665 0.386 2.202 0.997l0.003 0.003c0.080 0.078 0.155 0.159 0.226 0.245l0.004 0.005c0.317-0.158 0.691-0.251 1.087-0.251 1.2 0 2.201 0.852 2.431 1.985l0.003 0.016h2.050c1.105 0 2 0.895 2 2v0zM15 14c0-0.552-0.448-1-1-1v0h-2.87l-0.13-0.8c-0.144-0.69-0.747-1.2-1.47-1.2-0.011 0-0.021 0-0.032 0l0.002-0c-0.233 0.002-0.453 0.057-0.649 0.154l0.009-0.004-0.75 0.36-0.49-0.68c-0.368-0.496-0.952-0.814-1.61-0.814-0.881 0-1.629 0.569-1.895 1.36l-0.004 0.014-0.29 0.91-0.93-0.25c-0.115-0.032-0.247-0.050-0.383-0.050-0.003 0-0.005 0-0.008 0h0c-0.828 0-1.5 0.672-1.5 1.5s0.672 1.5 1.5 1.5v0h11.5c0.552 0 1-0.448 1-1v0z"></path>
</svg>

<svg width="16" height="16" viewBox="0 0 16 16" fill="rgb(34, 34, 34)" xmlns="http://www.w3.org/2000/svg"><title>desktop-group-cloud</title><path d="M5 2H4V1C4 0.448 4.448 0 5 0H14C14.552 0 15 0.448 15 1V6C15 6.552 14.552 7 14 7H13V2H5ZM2 10H2.55C3.252 8.8 4.533 8.005 5.999 8H3V5H10V8H5.999C7.006 8.007 7.925 8.385 8.624 9.004L8.62 9L8.73 9.09C8.961 9.033 9.227 9 9.5 9C10.316 9.003 11.065 9.285 11.657 9.755L11.65 9.75C11.862 9.568 11.997 9.3 12 9.001V4C12 3.448 11.552 3 11 3H2C1.448 3 1 3.448 1 4V9C1 9.552 1.448 10 2 10ZM16 14C16 15.105 15.105 16 14 16H2.5C1.119 16 0 14.881 0 13.5C0 12.119 1.119 11 2.5 11C2.733 11.005 2.956 11.041 3.168 11.105L3.15 11.1C3.291 10.673 3.51 10.306 3.792 9.998L3.79 10C4.33 9.385 5.117 8.999 5.995 8.999C6.873 8.999 7.66 9.385 8.197 9.996L8.2 9.999C8.28 10.077 8.355 10.158 8.426 10.244L8.43 10.249C8.747 10.091 9.121 9.998 9.517 9.998C10.717 9.998 11.718 10.85 11.948 11.983L11.951 11.999H14.001C15.106 11.999 16.001 12.894 16.001 13.999L16 14ZM15 14C15 13.448 14.552 13 14 13H11.13L11 12.2C10.856 11.51 10.253 11 9.53 11C9.519 11 9.509 11 9.498 11H9.5C9.267 11.002 9.047 11.057 8.851 11.154L8.86 11.15L8.11 11.51L7.62 10.83C7.252 10.334 6.668 10.016 6.01 10.016C5.129 10.016 4.381 10.585 4.115 11.376L4.111 11.39L3.821 12.3L2.891 12.05C2.776 12.018 2.644 12 2.508 12C2.505 12 2.503 12 2.5 12C1.672 12 1 12.672 1 13.5C1 14.328 1.672 15 2.5 15H14C14.552 15 15 14.552 15 14Z" fill="rgb(34, 34, 34)" fill-opacity="1.00"/></svg>
